X: 37323
T: Skye Glen, The
R: waltz
M: 3/4
K: Gmajor
G>B|"G"d3 B d>e|"G7" d>GG2 A>B|"C"A>GG2 e>c|"G"d6|
"Bm"d3 B d>e|"Em"d>GG2 A>B|"C"A>GG2 E>C|"D"D4 G>B|
"G"d3 B d>e|"G7"d>GG2 A>B|"C"A>GG2 e>c|"G"d4 d2|
"C"g3 c d>e|"G"d>GG2 A>B|"D"A3 B/A/ G>A|"G"G6|G4:|
|:B>d|"C"g3 c d>e|"G"d>GG2 A>B|"C"A>GG2 e>c|"G"d6|
"C"g3 c d>e|"G"d>GG2 A>B|"C"A>GG2 g>B|"D"A4 G>B|
"G"d3 B d>e|"G7"d>GG2 A>B|"C"A>GG2 e>c|"G"d6|
"C"g3 c d>e|"G"d>GG2 A>B|"D"A3 B/A/ G>A|"G"G6|G4:|

